X: 24134
T: Longford Tinker, The
R: reel
M: 4/4
K: Bminor
dBBA B2 Bc|dB B2 fBeB|dBBA B2 dB|ABde effe|
dB B2 AB B2|dB B2 f2 fg|a2 AF A2 AF|ABde fgfe||
d2 fd efge|defa gefe|d2 fd efge|faaf gefe|
d2 fd efge|defa g2 ga|b2 af gfed|faaf gfed||
fa a2 fa a2|faaf gfed|gb b2 gb b2|gbbf gfeg|
fa a2 fa a2|faaf g2 ga|b2 af gfed|faaf gfef||

